X:130
T:John Joe Hartnett's
R:slide
Z:id:hn-slide-130
M:6/8
L:1/8
K:G
GAG G2D | GBd g2e | ded B2A | GAG GED |
GAG G2D | GBd g2e | ded B2A | G3 G2D :|
|: G2A B2d | edB g3 | edB g2e | dBG AGE |
G2A B2d | ~e3 efg | afd def | g3 g2D :|

